static/img/pages/index/featureRich.svg

<svg width="176" height="113" viewBox="0 0 176 113" fill="none" xmlns="http://www.w3.org/2000/svg">
<path d="M0.756104 9.44995L176.756 9.44995L176.756 109.805C176.756 111.916 175.045 113.627 172.934 113.627L4.578 113.627C2.46722 113.627 0.756102 111.916 0.756102 109.805L0.756104 9.44995Z" fill="white"/>
<path d="M10.292 29.7014L10.292 28.9905L11.7902 28.9905L11.7902 24.9928L11.7291 24.9928L10.4908 26.3152L9.96335 25.8413L11.3239 24.366L12.6463 24.366L12.6463 28.9905L13.9381 28.9905L13.9381 29.7014L10.292 29.7014Z" fill="black"/>
<path d="M13.7853 47.936L10.1009 47.936L10.1009 47.1181L11.8437 45.597C12.1189 45.3524 12.3304 45.1206 12.4782 44.9014C12.631 44.6823 12.7075 44.4505 12.7075 44.2059L12.7075 44.1218C12.7075 43.8415 12.631 43.6275 12.4782 43.4797C12.3253 43.3268 12.1036 43.2504 11.8132 43.2504C11.5176 43.2504 11.2883 43.3294 11.1252 43.4873C10.9672 43.6453 10.8526 43.8466 10.7812 44.0912L10.0321 43.8084C10.0831 43.6402 10.157 43.4797 10.2538 43.3268C10.3506 43.1688 10.4729 43.0287 10.6207 42.9064C10.7736 42.7841 10.9519 42.6873 11.1558 42.6159C11.3647 42.5446 11.6042 42.5089 11.8743 42.5089C12.1495 42.5089 12.3941 42.5497 12.6081 42.6312C12.8272 42.7077 13.0107 42.8147 13.1585 42.9523C13.3062 43.0899 13.4184 43.2555 13.4948 43.4491C13.5712 43.6377 13.6094 43.8466 13.6094 44.0759C13.6094 44.2899 13.5763 44.4887 13.5101 44.6721C13.4489 44.8505 13.3597 45.0237 13.2425 45.1919C13.1304 45.355 12.9954 45.5129 12.8374 45.6658C12.6794 45.8187 12.5062 45.9716 12.3176 46.1245L11.0258 47.2099L13.7853 47.2099L13.7853 47.936Z" fill="black"/>
<path d="M11.6908 63.0357C12.0323 63.0357 12.2845 62.9644 12.4476 62.8217C12.6158 62.6739 12.6998 62.4905 12.6998 62.2713L12.6998 62.2178C12.6998 61.9732 12.6183 61.7872 12.4552 61.6598C12.2973 61.5273 12.0832 61.4611 11.8132 61.4611C11.5533 61.4611 11.3316 61.5197 11.1481 61.6369C10.9698 61.7541 10.8195 61.9146 10.6972 62.1185L10.1162 61.6216C10.1978 61.5044 10.292 61.3923 10.399 61.2853C10.5061 61.1783 10.6284 61.0865 10.7659 61.0101C10.9035 60.9286 11.0615 60.8649 11.2399 60.819C11.4182 60.7681 11.6195 60.7426 11.8437 60.7426C12.0934 60.7426 12.3253 60.7731 12.5393 60.8343C12.7533 60.8954 12.9393 60.9872 13.0973 61.1095C13.2553 61.2267 13.3776 61.3719 13.4642 61.5452C13.5508 61.7133 13.5942 61.9044 13.5942 62.1185C13.5942 62.2866 13.5661 62.4395 13.5101 62.5771C13.4591 62.7147 13.3852 62.837 13.2884 62.944C13.1967 63.0459 13.0871 63.13 12.9597 63.1962C12.8323 63.2625 12.6973 63.3109 12.5546 63.3415L12.5546 63.3797C12.7075 63.4103 12.8527 63.4612 12.9903 63.5326C13.1279 63.5988 13.2502 63.688 13.3572 63.8001C13.4642 63.9071 13.5483 64.0371 13.6094 64.1899C13.6706 64.3377 13.7012 64.5084 13.7012 64.7021C13.7012 64.9365 13.6553 65.1505 13.5636 65.3441C13.4719 65.5327 13.3394 65.6958 13.1661 65.8334C12.9979 65.9709 12.7941 66.078 12.5546 66.1544C12.3151 66.2257 12.0476 66.2614 11.752 66.2614C11.5023 66.2614 11.2806 66.2334 11.087 66.1773C10.8984 66.1264 10.7303 66.0576 10.5825 65.9709C10.4347 65.8792 10.3048 65.7773 10.1927 65.6652C10.0856 65.548 9.99138 65.4282 9.90984 65.3059L10.5443 64.8167C10.6768 65.0308 10.8322 65.2066 11.0106 65.3441C11.194 65.4766 11.4437 65.5429 11.7596 65.5429C12.096 65.5429 12.3533 65.4664 12.5317 65.3136C12.71 65.1556 12.7992 64.939 12.7992 64.6638L12.7992 64.6027C12.7992 64.3275 12.7049 64.1186 12.5164 63.9759C12.3329 63.8281 12.0654 63.7542 11.7138 63.7542L11.1405 63.7542L11.1405 63.0357L11.6908 63.0357Z" fill="black"/>
<path d="M12.3864 83.2275L12.3864 82.188L9.84869 82.188L9.84869 81.4542L12.0807 77.8922L13.2043 77.8922L13.2043 81.5153L13.9534 81.5153L13.9534 82.188L13.2043 82.188L13.2043 83.2275L12.3864 83.2275ZM10.5749 81.5153L12.3864 81.5153L12.3864 78.6795L12.3406 78.6795L10.5749 81.5153Z" fill="black"/>
<path d="M13.5254 94.5147L11.1023 94.5147L10.9647 96.4104L11.0258 96.4104C11.1481 96.2014 11.2959 96.0358 11.4692 95.9135C11.6424 95.7861 11.8794 95.7224 12.1801 95.7224C12.4094 95.7224 12.6208 95.7607 12.8145 95.8371C13.0132 95.9135 13.1839 96.0231 13.3266 96.1658C13.4744 96.3085 13.5891 96.4843 13.6706 96.6932C13.7572 96.897 13.8005 97.1289 13.8005 97.3888C13.8005 97.6538 13.7572 97.8984 13.6706 98.1226C13.584 98.3417 13.4591 98.5328 13.296 98.6959C13.133 98.8538 12.9317 98.9787 12.6922 99.0704C12.4527 99.1571 12.1801 99.2004 11.8743 99.2004C11.6348 99.2004 11.4208 99.1723 11.2322 99.1163C11.0488 99.0653 10.8832 98.9965 10.7354 98.9099C10.5927 98.8182 10.4678 98.7163 10.3608 98.6042C10.2538 98.4869 10.1595 98.3672 10.078 98.2449L10.7048 97.7557C10.771 97.8576 10.8398 97.9544 10.9112 98.0462C10.9876 98.1328 11.0717 98.2092 11.1634 98.2755C11.2552 98.3417 11.3596 98.3927 11.4768 98.4283C11.5991 98.464 11.7367 98.4819 11.8896 98.4819C12.2208 98.4819 12.4731 98.3927 12.6463 98.2143C12.8196 98.0309 12.9062 97.7837 12.9062 97.4729L12.9062 97.4117C12.9062 97.1009 12.817 96.8588 12.6387 96.6856C12.4654 96.5123 12.2157 96.4257 11.8896 96.4257C11.6501 96.4257 11.4615 96.469 11.3239 96.5556C11.1864 96.6422 11.0666 96.7391 10.9647 96.8461L10.2538 96.7467L10.4526 93.7733L13.5254 93.7733L13.5254 94.5147Z" fill="black"/>
<path d="M0.756103 4.44886C0.756103 2.33808 2.46723 0.626953 4.57801 0.626953L172.934 0.626955C175.045 0.626955 176.756 2.33808 176.756 4.44886L176.756 9.44988L0.756103 9.44988L0.756103 4.44886Z" fill="#EAEAEA"/>
<ellipse cx="6.77049" cy="5.0386" rx="1.58273" ry="1.47049" fill="#6422F1"/>
<ellipse cx="11.2022" cy="5.0386" rx="1.58273" ry="1.47049" fill="#F46591"/>
<ellipse cx="15.6338" cy="5.0386" rx="1.58273" ry="1.47049" fill="#2BD38D"/>
<path d="M21.3209 47.936L22.2075 42.6007L25.6931 42.6007L25.5555 43.4185L23.0484 43.4185L22.8191 44.825L25.074 44.825L24.9364 45.6429L22.6815 45.6429L22.2993 47.936L21.3209 47.936ZM26.8749 47.936L25.8965 47.936L26.7832 42.6007L28.7094 42.6007C29.1783 42.6007 29.5299 42.7255 29.7643 42.9752C29.9987 43.2249 30.1159 43.5561 30.1159 43.9689C30.1159 44.4632 29.9962 44.8658 29.7566 45.1766C29.5171 45.4875 29.1808 45.6862 28.7477 45.7728L29.5426 47.936L28.5031 47.936L27.8228 45.8569L27.2189 45.8569L26.8749 47.936ZM28.1667 45.0773C28.4368 45.0773 28.6381 45.0263 28.7706 44.9244C28.9082 44.8225 28.9974 44.6568 29.0381 44.4275L29.0763 44.1982C29.0865 44.1625 29.0916 44.1218 29.0916 44.0759C29.0967 44.025 29.0993 43.9791 29.0993 43.9383C29.0993 43.76 29.0432 43.6275 28.9311 43.5408C28.8241 43.4491 28.6661 43.4033 28.4572 43.4033L27.6317 43.4033L27.3488 45.0773L28.1667 45.0773ZM32.2685 48.0278C31.6621 48.0278 31.2187 47.857 30.9385 47.5156C30.6582 47.1691 30.518 46.6901 30.518 46.0786C30.518 45.6607 30.5588 45.2403 30.6403 44.8174C30.727 44.3893 30.862 44.0046 31.0455 43.6631C31.234 43.3217 31.4786 43.044 31.7793 42.83C32.085 42.6159 32.4596 42.5089 32.9029 42.5089C33.5093 42.5089 33.9527 42.6822 34.2329 43.0287C34.5132 43.3701 34.6533 43.8466 34.6533 44.4581C34.6533 44.876 34.61 45.2989 34.5234 45.727C34.4419 46.1499 34.3068 46.5321 34.1183 46.8735C33.9348 47.215 33.6902 47.4927 33.3845 47.7067C33.0838 47.9207 32.7118 48.0278 32.2685 48.0278ZM32.2838 47.2175C32.6303 47.2175 32.8927 47.0876 33.0711 46.8277C33.2545 46.5627 33.3845 46.1932 33.4609 45.7193L33.6138 44.825C33.6444 44.6212 33.6596 44.4275 33.6596 44.2441C33.6596 43.9536 33.5985 43.7268 33.4762 43.5638C33.3539 43.4007 33.1577 43.3192 32.8876 43.3192C32.5411 43.3192 32.2761 43.4517 32.0927 43.7167C31.9143 43.9765 31.7869 44.3434 31.7105 44.8174L31.5576 45.7117C31.527 45.9206 31.5117 46.1143 31.5117 46.2926C31.5117 46.5831 31.5729 46.8098 31.6952 46.9729C31.8175 47.136 32.0137 47.2175 32.2838 47.2175ZM38.2124 45.4518L38.5105 43.9077L38.4493 43.9077L36.9435 46.6519L36.3626 43.9077L36.3014 43.9077L36.0874 45.4518L35.6746 47.936L34.8109 47.936L35.6976 42.6007L36.8441 42.6007L37.2645 44.5804L37.3257 44.5804L38.4035 42.6007L39.55 42.6007L38.6634 47.936L37.7996 47.936L38.2124 45.4518Z" fill="#6422F1"/>
<path d="M70.3074 60.2462L72.096 60.2462C72.5495 60.2462 72.8935 60.3583 73.1279 60.5825C73.3674 60.8016 73.4872 61.0997 73.4872 61.4768C73.4872 61.8437 73.3955 62.1418 73.212 62.3711C73.0286 62.5954 72.761 62.7533 72.4094 62.8451L72.4018 62.8756C72.6719 62.9368 72.8808 63.0514 73.0286 63.2196C73.1814 63.3878 73.2579 63.6171 73.2579 63.9075C73.2579 64.1522 73.2146 64.3764 73.1279 64.5802C73.0464 64.784 72.9292 64.9598 72.7763 65.1076C72.6234 65.2554 72.4374 65.3726 72.2183 65.4592C71.9992 65.5408 71.7546 65.5815 71.4845 65.5815L69.4207 65.5815L70.3074 60.2462ZM71.2705 64.863C71.5406 64.863 71.7571 64.8121 71.9202 64.7101C72.0884 64.6082 72.1877 64.4477 72.2183 64.2286L72.2489 64.0146C72.2591 63.9687 72.2667 63.9228 72.2718 63.877C72.2769 63.826 72.2795 63.7827 72.2795 63.747C72.2795 63.3903 72.0451 63.212 71.5762 63.212L70.7813 63.212L70.5061 64.863L71.2705 64.863ZM71.5304 62.524C71.8056 62.524 72.0145 62.4782 72.1572 62.3864C72.2999 62.2947 72.3916 62.1342 72.4323 61.9049L72.4706 61.6985C72.4808 61.6628 72.4859 61.6246 72.4859 61.5838C72.4909 61.5431 72.4935 61.5048 72.4935 61.4692C72.4935 61.2857 72.4349 61.1558 72.3177 61.0793C72.2005 61.0029 72.0349 60.9647 71.8208 60.9647L71.1558 60.9647L70.8959 62.524L71.5304 62.524ZM75.1964 65.5815L75.5175 63.64L74.3403 60.2462L75.3875 60.2462L75.8079 61.5456L76.106 62.6463L76.1672 62.6463L76.8475 61.5456L77.6807 60.2462L78.789 60.2462L76.5035 63.6094L76.1748 65.5815L75.1964 65.5815Z" fill="#6422F1"/>
<path d="M23.056 29.7931C22.6076 29.7931 22.2152 29.7167 21.8789 29.5638C21.5476 29.411 21.3005 29.202 21.1374 28.937L21.7795 28.3255C21.9375 28.5447 22.1337 28.7077 22.3681 28.8147C22.6025 28.9217 22.8522 28.9753 23.1172 28.9753C23.4484 28.9753 23.7006 28.8988 23.8739 28.7459C24.0523 28.588 24.1414 28.3714 24.1414 28.0962C24.1414 27.9026 24.0879 27.7573 23.9809 27.6605C23.879 27.5586 23.7057 27.4796 23.4611 27.4236L22.9184 27.3013C22.5209 27.2146 22.2305 27.0567 22.047 26.8273C21.8687 26.5929 21.7795 26.3076 21.7795 25.9712C21.7795 25.7113 21.8254 25.4769 21.9171 25.268C22.0139 25.0591 22.1489 24.8807 22.3222 24.7329C22.5006 24.5852 22.712 24.4731 22.9566 24.3966C23.2063 24.3151 23.4841 24.2743 23.7898 24.2743C24.2026 24.2743 24.5593 24.3482 24.86 24.496C25.1606 24.6387 25.3848 24.8272 25.5326 25.0616L24.8752 25.6426C24.7478 25.4642 24.5899 25.3266 24.4013 25.2298C24.2179 25.1279 23.9987 25.0769 23.744 25.0769C23.4331 25.0769 23.1961 25.1483 23.0331 25.2909C22.87 25.4336 22.7885 25.6273 22.7885 25.8719C22.7885 26.0502 22.842 26.1878 22.949 26.2846C23.0611 26.3764 23.2446 26.4528 23.4994 26.5139L24.0191 26.6439C24.4166 26.7458 24.7045 26.9063 24.8829 27.1255C25.0663 27.3446 25.1581 27.6299 25.1581 27.9816C25.1581 28.2516 25.1096 28.4988 25.0128 28.723C24.9211 28.9421 24.7835 29.1307 24.6001 29.2887C24.4217 29.4466 24.2026 29.5715 23.9427 29.6632C23.6828 29.7498 23.3872 29.7931 23.056 29.7931ZM25.9042 29.7014L26.7908 24.366L30.1618 24.366L30.0242 25.1839L27.6317 25.1839L27.4024 26.5904L29.6955 26.5904L29.5579 27.4083L27.2648 27.4083L27.0202 28.8835L29.4127 28.8835L29.2751 29.7014L25.9042 29.7014ZM30.6327 29.7014L31.5194 24.366L32.4978 24.366L31.7487 28.8835L34.1259 28.8835L33.9883 29.7014L30.6327 29.7014ZM35.0708 29.7014L35.9574 24.366L39.3284 24.366L39.1908 25.1839L36.7983 25.1839L36.569 26.5904L38.8621 26.5904L38.7245 27.4083L36.4314 27.4083L36.1868 28.8835L38.5793 28.8835L38.4417 29.7014L35.0708 29.7014ZM41.5574 29.7931C40.951 29.7931 40.5051 29.6199 40.2197 29.2734C39.9343 28.9217 39.7917 28.4274 39.7917 27.7905C39.7917 27.286 39.8477 26.8197 39.9598 26.3916C40.0719 25.9585 40.2324 25.5865 40.4414 25.2757C40.6503 24.9597 40.9076 24.7151 41.2134 24.5418C41.5192 24.3635 41.8631 24.2743 42.2453 24.2743C42.5256 24.2743 42.7651 24.3125 42.9638 24.389C43.1677 24.4603 43.3358 24.5622 43.4683 24.6947C43.6059 24.8272 43.7104 24.9826 43.7817 25.161C43.8531 25.3393 43.8964 25.5304 43.9117 25.7343L42.9791 25.9483C42.9638 25.826 42.9409 25.7113 42.9103 25.6043C42.8848 25.4973 42.8415 25.4056 42.7804 25.3292C42.7243 25.2527 42.6479 25.1941 42.5511 25.1533C42.4542 25.1075 42.3345 25.0846 42.1918 25.0846C41.8453 25.0846 41.5752 25.2196 41.3816 25.4897C41.193 25.7547 41.058 26.1216 40.9764 26.5904L40.8389 27.393C40.8185 27.5 40.8032 27.6019 40.793 27.6987C40.7828 27.7956 40.7777 27.9026 40.7777 28.0198C40.7777 28.3153 40.844 28.5497 40.9764 28.723C41.1089 28.8963 41.3281 28.9829 41.6338 28.9829C41.8988 28.9829 42.1128 28.8963 42.2759 28.723C42.4441 28.5497 42.5944 28.3204 42.7269 28.0351L43.5601 28.3102C43.4581 28.5497 43.3435 28.7612 43.2161 28.9447C43.0887 29.1281 42.9435 29.2836 42.7804 29.411C42.6224 29.5383 42.4415 29.6352 42.2377 29.7014C42.0338 29.7626 41.8071 29.7931 41.5574 29.7931ZM47.1344 25.1839L46.3853 29.7014L45.4069 29.7014L46.156 25.1839L44.5431 25.1839L44.6807 24.366L48.8924 24.366L48.7549 25.1839L47.1344 25.1839Z" fill="#6422F1"/>
<rect x="53.3029" y="23.6423" width="64.5755" height="7.05834" rx="3.52917" fill="#D7D7D7"/>
<rect x="44.4396" y="41.8765" width="55.7122" height="7.05834" rx="3.52917" fill="#EAEAEA"/>
<rect x="23.5475" y="59.5227" width="39.8849" height="7.05834" rx="3.52917" fill="#D7D7D7"/>
<rect x="23.5475" y="76.5801" width="39.8849" height="7.05834" rx="3.52917" fill="#EAEAEA"/>
<rect x="67.2309" y="76.5798" width="35.4532" height="7.05834" rx="3.52917" fill="#D7D7D7"/>
<rect x="106.483" y="76.5798" width="24.0576" height="7.05834" rx="3.52917" fill="#EAEAEA"/>
<rect x="85.5906" y="59.5227" width="39.8849" height="7.05834" rx="3.52917" fill="#EAEAEA"/>
<g filter="url(#filter0_d)">
<rect x="23.5475" y="92.4614" width="2.53237" height="7.05834" fill="#0CC0DF"/>
</g>
<defs>
<filter id="filter0_d" x="19.5475" y="92.4614" width="10.5324" height="15.0583" filterUnits="userSpaceOnUse" color-interpolation-filters="sRGB">
<feFlood flood-opacity="0" result="BackgroundImageFix"/>
<feColorMatrix in="SourceAlpha" type="matrix" values="0 0 0 0 0 0 0 0 0 0 0 0 0 0 0 0 0 0 127 0"/>
<feOffset dy="4"/>
<feGaussianBlur stdDeviation="2"/>
<feColorMatrix type="matrix" values="0 0 0 0 0 0 0 0 0 0 0 0 0 0 0 0 0 0 0.25 0"/>
<feBlend mode="normal" in2="BackgroundImageFix" result="effect1_dropShadow"/>
<feBlend mode="normal" in="SourceGraphic" in2="effect1_dropShadow" result="shape"/>
</filter>
</defs>
</svg>

<svg width="176" height="113" viewBox="0 0 176 113" fill="none" xmlns="http://www.w3.org/2000/svg"><path d="M.756 9.45h176v100.355a3.822 3.822 0 01-3.822 3.822H4.578a3.822 3.822 0 01-3.822-3.822V9.45z" fill="#fff"/><path d="M10.292 29.701v-.71h1.498v-3.998h-.06l-1.24 1.322-.527-.474 1.36-1.475h1.323v4.625h1.292v.71h-3.646zm3.493 18.235h-3.684v-.818l1.743-1.521c.275-.245.486-.476.634-.696.153-.219.23-.45.23-.695v-.084c0-.28-.077-.495-.23-.642-.153-.153-.374-.23-.665-.23-.295 0-.525.08-.688.237-.158.158-.272.36-.344.604l-.749-.283a1.96 1.96 0 01.222-.481c.097-.158.219-.298.367-.42.153-.123.33-.22.535-.291a2.22 2.22 0 01.718-.107c.275 0 .52.04.734.122.22.077.403.184.55.321.148.138.26.303.337.497.076.189.114.398.114.627 0 .214-.033.413-.099.596-.061.178-.15.352-.268.52a3.126 3.126 0 01-.405.474 7.911 7.911 0 01-.52.459l-1.291 1.085h2.76v.726zm-2.095 15.1c.342 0 .595-.072.758-.214a.703.703 0 00.252-.55v-.054c0-.245-.082-.43-.245-.558-.158-.133-.372-.199-.642-.199-.26 0-.481.059-.665.176a1.467 1.467 0 00-.45.481l-.582-.496a2.48 2.48 0 01.283-.337 1.65 1.65 0 01.367-.275 1.81 1.81 0 01.474-.191 2.2 2.2 0 01.604-.076c.25 0 .481.03.695.091.214.061.4.153.558.275a1.234 1.234 0 01.497 1.009c0 .169-.028.322-.084.46a1.124 1.124 0 01-.55.618 1.6 1.6 0 01-.405.146v.038c.152.03.298.081.435.153a1.257 1.257 0 01.62.657c.06.148.091.318.091.512 0 .234-.046.448-.137.642a1.405 1.405 0 01-.398.49 1.836 1.836 0 01-.611.32c-.24.072-.507.107-.803.107-.25 0-.471-.028-.665-.084a2.045 2.045 0 01-.505-.206 2.154 2.154 0 01-.39-.306 3.003 3.003 0 01-.282-.36l.634-.488c.133.214.288.39.467.527.183.133.433.199.749.199.336 0 .593-.077.772-.23.178-.157.267-.374.267-.65v-.06c0-.275-.094-.484-.283-.627-.183-.148-.45-.222-.802-.222h-.574v-.718h.55zm.696 20.192v-1.04H9.85v-.734l2.232-3.562h1.123v3.623h.75v.673h-.75v1.04h-.818zm-1.811-1.713h1.811V78.68h-.045l-1.766 2.835zm2.95 13h-2.423l-.137 1.895h.06a1.56 1.56 0 01.444-.496c.173-.128.41-.192.711-.192.23 0 .44.039.635.115a1.466 1.466 0 01.856.856c.086.204.13.436.13.696 0 .265-.044.51-.13.734-.087.219-.212.41-.375.573a1.759 1.759 0 01-.604.374c-.24.087-.512.13-.818.13a2.256 2.256 0 01-1.139-.29 2.037 2.037 0 01-.374-.306 3.016 3.016 0 01-.283-.36l.627-.488c.066.102.135.198.206.29.077.087.16.163.252.23.092.066.197.117.314.152.122.036.26.054.413.054.33 0 .583-.09.756-.268.174-.183.26-.43.26-.741v-.061c0-.311-.089-.553-.267-.726-.174-.174-.423-.26-.75-.26-.239 0-.428.043-.565.13a1.866 1.866 0 00-.36.29l-.71-.1.199-2.973h3.072v.742z" fill="#000"/><path d="M.756 4.449A3.822 3.822 0 014.578.627h168.356a3.822 3.822 0 013.822 3.822v5h-176v-5z" fill="#EAEAEA"/><ellipse cx="6.77" cy="5.039" rx="1.583" ry="1.47" fill="#6422F1"/><ellipse cx="11.202" cy="5.039" rx="1.583" ry="1.47" fill="#F46591"/><ellipse cx="15.634" cy="5.039" rx="1.583" ry="1.47" fill="#2BD38D"/><path d="M21.32 47.936l.887-5.335h3.486l-.138.818h-2.507l-.229 1.406h2.255l-.138.818h-2.255l-.382 2.293h-.978zm5.555 0h-.979l.887-5.335h1.926c.47 0 .82.124 1.055.374s.352.581.352.994c0 .494-.12.897-.36 1.208-.239.31-.575.51-1.008.596l.795 2.163h-1.04l-.68-2.08h-.604l-.344 2.08zm1.292-2.859c.27 0 .471-.05.604-.153.137-.102.226-.267.267-.496l.038-.23a.446.446 0 00.016-.122c.005-.051.007-.097.007-.138 0-.178-.056-.31-.168-.397-.107-.092-.265-.138-.474-.138h-.825l-.283 1.674h.818zm4.102 2.95c-.607 0-1.05-.17-1.33-.511-.28-.347-.421-.826-.421-1.437 0-.418.04-.839.122-1.262.087-.428.222-.812.405-1.154a2.47 2.47 0 01.734-.833c.306-.214.68-.321 1.124-.321.606 0 1.05.173 1.33.52.28.341.42.818.42 1.43 0 .417-.043.84-.13 1.268a3.87 3.87 0 01-.405 1.147 2.371 2.371 0 01-.733.833c-.301.214-.673.32-1.116.32zm.015-.81c.346 0 .609-.13.787-.39.184-.264.314-.634.39-1.108l.153-.894c.03-.204.046-.398.046-.58 0-.291-.061-.518-.184-.681-.122-.163-.318-.245-.588-.245-.347 0-.612.133-.795.398-.179.26-.306.626-.383 1.1l-.152.895a3.964 3.964 0 00-.046.58c0 .291.06.518.183.68.122.164.319.245.589.245zm5.928-1.765l.298-1.544h-.06l-1.507 2.744-.58-2.744H36.3l-.214 1.544-.412 2.484h-.864l.887-5.335h1.146l.42 1.98h.062l1.078-1.98h1.146l-.887 5.335H37.8l.412-2.484zm32.095 14.794h1.789c.453 0 .797.112 1.032.337.24.219.36.517.36.894 0 .367-.093.665-.276.894-.183.224-.451.382-.803.474l-.007.03c.27.062.479.176.627.345.152.168.229.397.229.688a1.7 1.7 0 01-.13.672c-.082.204-.199.38-.352.528a1.68 1.68 0 01-.558.351 2.09 2.09 0 01-.734.123h-2.063l.886-5.336zm.963 4.617c.27 0 .487-.05.65-.153a.631.631 0 00.298-.481l.03-.214a1.294 1.294 0 00.031-.268c0-.357-.234-.535-.703-.535h-.795l-.275 1.651h.764zm.26-2.339c.276 0 .484-.046.627-.138.143-.091.235-.252.275-.481l.039-.206a.416.416 0 00.015-.115.945.945 0 00.007-.115c0-.183-.058-.313-.175-.39-.117-.076-.283-.114-.497-.114h-.665l-.26 1.559h.634zm3.666 3.058l.322-1.942-1.178-3.394h1.047l.42 1.3.299 1.1h.061l.68-1.1.834-1.3h1.108l-2.285 3.363-.33 1.973h-.978zm-52.14-35.789c-.448 0-.84-.076-1.177-.23-.331-.152-.579-.361-.742-.626l.642-.611c.159.219.355.382.59.489.233.107.483.16.748.16.331 0 .584-.076.757-.23.178-.157.267-.374.267-.649 0-.193-.053-.339-.16-.436-.102-.101-.275-.18-.52-.236l-.543-.123c-.397-.086-.688-.244-.871-.474a1.373 1.373 0 01-.268-.856c0-.26.046-.494.138-.703.097-.209.232-.387.405-.535.179-.148.39-.26.635-.336a2.66 2.66 0 01.833-.123c.413 0 .77.074 1.07.222.3.143.525.331.673.566l-.658.58a1.313 1.313 0 00-.474-.412 1.334 1.334 0 00-.657-.153c-.31 0-.548.071-.71.214-.164.143-.245.336-.245.58 0 .18.053.317.16.414.112.091.296.168.55.229l.52.13c.398.102.686.262.864.482.183.219.275.504.275.856 0 .27-.048.517-.145.741-.092.22-.23.408-.413.566a1.965 1.965 0 01-.657.374 2.8 2.8 0 01-.887.13zm2.848-.092l.887-5.335h3.37l-.137.818h-2.392l-.23 1.406h2.293l-.137.818h-2.293l-.245 1.476h2.393l-.138.817h-3.37zm4.729 0l.886-5.335h.979l-.75 4.518h2.378l-.138.817h-3.355zm4.438 0l.886-5.335h3.371l-.137.818h-2.393l-.229 1.406h2.293l-.138.818h-2.293l-.244 1.476h2.392l-.137.817H35.07zm6.486.092c-.606 0-1.052-.173-1.337-.52-.286-.351-.428-.846-.428-1.482 0-.505.056-.971.168-1.4.112-.432.272-.804.481-1.115.21-.316.467-.56.772-.734a2.01 2.01 0 011.032-.268c.28 0 .52.038.719.115.204.071.372.173.504.306.138.132.242.288.314.466.071.178.114.37.13.573l-.933.214a2.28 2.28 0 00-.069-.344.69.69 0 00-.13-.275.534.534 0 00-.229-.176.838.838 0 00-.36-.068.94.94 0 00-.81.405c-.188.265-.323.632-.405 1.1l-.137.803a3.084 3.084 0 00-.061.627c0 .295.066.53.198.703.133.173.352.26.658.26a.84.84 0 00.642-.26 2.47 2.47 0 00.45-.688l.834.275c-.102.24-.217.451-.344.635a2.122 2.122 0 01-.436.466 1.687 1.687 0 01-.542.29 2.33 2.33 0 01-.68.092zm5.577-4.61l-.749 4.518h-.978l.749-4.517h-1.613l.138-.818h4.211l-.137.818h-1.62z" fill="#6422F1"/><rect x="53.303" y="23.642" width="64.576" height="7.058" rx="3.529" fill="#D7D7D7"/><rect x="44.44" y="41.877" width="55.712" height="7.058" rx="3.529" fill="#EAEAEA"/><rect x="23.547" y="59.523" width="39.885" height="7.058" rx="3.529" fill="#D7D7D7"/><rect x="23.547" y="76.58" width="39.885" height="7.058" rx="3.529" fill="#EAEAEA"/><rect x="67.231" y="76.58" width="35.453" height="7.058" rx="3.529" fill="#D7D7D7"/><rect x="106.483" y="76.58" width="24.058" height="7.058" rx="3.529" fill="#EAEAEA"/><rect x="85.591" y="59.523" width="39.885" height="7.058" rx="3.529" fill="#EAEAEA"/><g filter="url(#filter0_d)"><rect x="23.547" y="92.461" width="2.532" height="7.058" fill="#0CC0DF"/></g><defs><filter id="filter0_d" x="19.547" y="92.461" width="10.532" height="15.058" filterUnits="userSpaceOnUse" color-interpolation-filters="sRGB"><feFlood flood-opacity="0" result="BackgroundImageFix"/><feColorMatrix in="SourceAlpha" type="matrix" values="0 0 0 0 0 0 0 0 0 0 0 0 0 0 0 0 0 0 127 0"/><feOffset dy="4"/><feGaussianBlur stdDeviation="2"/><feColorMatrix type="matrix" values="0 0 0 0 0 0 0 0 0 0 0 0 0 0 0 0 0 0 0.25 0"/><feBlend mode="normal" in2="BackgroundImageFix" result="effect1_dropShadow"/><feBlend mode="normal" in="SourceGraphic" in2="effect1_dropShadow" result="shape"/></filter></defs></svg>
